X:1055
%%etbk:tnset id:85,pos:2,rep:3
%%etbk:site1 http://www.thesession.org/tunes/display/4191
T: Humours Of Ballingarry, The
Z: Piano Box Version by Martin Fleischmann (www.boxplayer.ch)
M: 6/8
L: 1/8
R: jig
K: Gmaj
| !5!dc |: "G"!3!B!1!GG !5!dGG | "D"!4!cA!1!G !2!F!1!G!2!A | "G"!3!BBB BdB | "D"!4!c!2!A!1!F "G"!1!G!5!dc |
!3!B!1!GG !5!dGG | "D"!4!c!2!A!1!G !1!F!5!d!2!d | !2!def !5!g!2!d!1!B |1 !3!c!1!A!2!F "G"!1!G!5!dc:|2 !3!c!1!A!2!F "G"!1!G!2!B!3!c:|
|: "G"!1!def !4!ggg | !2!e!1!d!3!c !2!Bc!4!d | "D"!2!e2!4!a aga | !5!b!3!g!2!e e!1!d!2!B |
"G"!1!def !4!ggg | !2!e!1!d!3!c !2!Bc!1!A | !1!G!2!B!3!d !5!g!3!d!2!B |1 "D"!3!c!1!A!2!F "G"!1!G!2!Bc:|2 "D"!3!c!1!A!2!F "G"!1!G!5!dc:|
|"orig bar 10,11" edc BAG | A2a aga |

